X:367
T: EI SIN D'R DENN DEI HOSENBENGEL
N: E0994A
O: Europa, Mitteleuropa, Deutschland, Hessen, Kassel, Schwalmgrund
R: Tanz - Lied, Reigen
M: 2/4
L: 1/8
K: C
G | EGGG | EGGG | cBAG | G2Fz |
DFFF | DFFF | AGFE | F2Ez

@@@ Tune index: 4680
